icons/svg/sport/horse_riding.svg

<?xml version="1.0" encoding="UTF-8" standalone="no"?>
<!-- Created with Inkscape (http://www.inkscape.org/) -->

<svg
   xmlns:dc="http://purl.org/dc/elements/1.1/"
   xmlns:cc="http://creativecommons.org/ns#"
   xmlns:rdf="http://www.w3.org/1999/02/22-rdf-syntax-ns#"
   xmlns:svg="http://www.w3.org/2000/svg"
   xmlns="http://www.w3.org/2000/svg"
   xmlns:sodipodi="http://sodipodi.sourceforge.net/DTD/sodipodi-0.dtd"
   xmlns:inkscape="http://www.inkscape.org/namespaces/inkscape"
   version="1.0"
   width="580"
   height="580"
   id="svg2"
   sodipodi:version="0.32"
   inkscape:version="0.91 r"
   sodipodi:docname="horse_riding.svg"
   inkscape:output_extension="org.inkscape.output.svg.inkscape">
  <metadata
     id="metadata2975">
    <rdf:RDF>
      <cc:Work
         rdf:about="">
        <dc:format>image/svg+xml</dc:format>
        <dc:type
           rdf:resource="http://purl.org/dc/dcmitype/StillImage" />
        <cc:license
           rdf:resource="http://web.resource.org/cc/PublicDomain" />
        <dc:language>en</dc:language>
        <dc:title></dc:title>
      </cc:Work>
    </rdf:RDF>
  </metadata>
  <sodipodi:namedview
     inkscape:window-height="1004"
     inkscape:window-width="1920"
     inkscape:pageshadow="2"
     inkscape:pageopacity="0.0"
     guidetolerance="10.0"
     gridtolerance="10.0"
     objecttolerance="10.0"
     borderopacity="1.0"
     bordercolor="#666666"
     pagecolor="#ffffff"
     id="base"
     inkscape:zoom="0.92167712"
     inkscape:cx="397.0351"
     inkscape:cy="277.97216"
     inkscape:window-x="1680"
     inkscape:window-y="0"
     inkscape:current-layer="svg2"
     showgrid="false"
     inkscape:window-maximized="1" />
  <defs
     id="defs4">
    <inkscape:perspective
       sodipodi:type="inkscape:persp3d"
       inkscape:vp_x="0 : 290 : 1"
       inkscape:vp_y="0 : 1000 : 0"
       inkscape:vp_z="580 : 290 : 1"
       inkscape:persp3d-origin="290 : 193.33333 : 1"
       id="perspective10" />
  </defs>
  <g
     id="g1327">
    <path
       d="M 66.275,1.768 C 24.94,1.768 1.704,23.139 1.704,66.804 L 1.704,516.927 C 1.704,557.771 22.599,579.156 63.896,579.156 L 515.92,579.156 C 557.227,579.156 578.149,558.841 578.149,516.927 L 578.149,66.804 C 578.149,24.203 557.227,1.768 514.628,1.768 C 514.624,1.768 66.133,1.625 66.275,1.768 z "
       style="fill:#111;stroke:#eee;stroke-width:3.40799999"
       id="path1329" />
  </g>
  <path
     style="fill:#ffffff"
     inkscape:connector-curvature="0"
     d="m 510.43,216.548 c 1.417,-6.765 -7.447,-15.88 -7.447,-15.88 -2.543,-13.087 -15.548,-22.172 -15.548,-22.172 l -3.498,-0.664 -6.151,-32.664 -6.382,11.568 -1.326,-11.568 -15.046,27.649 c -24.447,-2.601 -43.556,2.204 -57.792,9.059 -0.913,-0.194 -1.872,-0.372 -2.881,-0.531 -8.588,-1.415 -20.541,-1.415 -36.252,0 -8.197,-14.929 -15.076,-26.492 -20.832,-35.42 -5.855,-8.88 -8.146,-13.223 -13.465,-17.516 -5.611,-4.536 -12.1,-8.83 -18.883,-8.928 -6.732,-0.146 -11.609,1.464 -21.22,8.586 -9.808,7.172 -26.396,23.761 -36.592,33.957 -10.247,9.953 -18.589,18.101 -23.907,25.76 -5.367,7.563 -7.807,12.734 -7.708,19.662 0.089,6.251 1.736,12.74 6.715,19.037 -13.94,-2.476 -51.849,-6.654 -73.94,15.623 -8.069,-8.382 -45.297,-43.569 -73.871,-12.051 -13.227,16.533 -1.105,44.354 -0.553,56.755 0.553,12.402 -7.719,41.318 -30.855,52.334 0,0 75.068,-4.955 62.807,-62.253 -1.348,-8.674 -8.001,-34.916 34.785,-24.755 -8.162,13.931 -11.689,34.504 -6.402,64.695 0,0 11.568,46.283 -14.051,75.209 l -4.965,85.129 c 0,0 9.92,4.955 8.271,17.357 0,0 -1.658,9.91 1.648,12.393 l 21.488,0 -9.92,-14.875 c 0,0 -21.488,-52.072 15.709,-104.135 0,0 9.909,-11.568 14.875,-15.699 l -14.051,32.232 c 0,0 14.875,54.545 14.051,74.375 0,0 -0.824,8.273 11.568,9.92 0,0 -2.482,14.051 2.482,16.533 l 22.313,0 c 0,0 -21.488,-24.795 -22.313,-27.277 0,0 -11.578,-58.676 -4.141,-76.033 0,0 25.629,-55.369 38.846,-67.771 0,0 12.402,-6.613 20.664,-4.953 0,0 27.96,9.187 60.934,12.967 0.27,3.009 0.827,5.656 1.918,7.9 3.316,6.684 12.488,9.172 18.1,9.318 5.561,-0.098 12.197,0 15.025,-8.93 0.563,-1.959 0.924,-4.321 1.158,-6.972 3.761,-0.218 7.482,-0.565 11.131,-1.069 0,0 10.743,42.977 0,70.254 0,0 -2.483,59.5 -6.613,63.641 0,0 5.789,9.086 5.789,14.875 0,0 -1.659,14.051 3.307,14.051 l 21.487,0 c 0,0 -19.016,-14.051 -13.227,-38.021 0,0 0,-35.539 6.613,-42.152 0,0 4.955,42.152 1.648,54.555 0,0 9.921,10.734 10.745,15.699 l 2.482,13.227 23.136,0 -19.005,-28.102 c 0,0 -8.263,-52.072 2.482,-88.436 0,0 7.437,-23.137 10.743,-42.152 0,0 23.349,-19.389 23.911,-57.318 l 0.965,1.488 c 5.478,-32.002 29.8,-47.882 29.8,-47.882 12.132,15.237 33.64,14.925 33.64,14.925 12.664,7.498 21.367,21.459 21.367,21.459 13.79,16.061 21.026,2.943 21.026,2.943 7.638,2.393 10.482,-5.498 10.482,-5.498 8.216,-13.99 -25.274,-63.458 -25.274,-63.458 z m -183.685,15.166 c 0,0 -3.796,0.74 -10.902,1.391 l -37.162,-21.363 38.202,-37.177 c 5.416,8.587 9.855,15.612 13.855,21.075 3.758,5.367 4.633,9.172 9.611,11.416 4.879,2.05 10.244,1.464 20.443,1.464 0.906,0.005 1.911,0.021 2.988,0.044 l -37.035,23.15 z"
     id="path11" />
  <path
     style="fill:#ffffff"
     inkscape:connector-curvature="0"
     d="m 356.498,132.894 c 18.287,0 33.129,-13.77 33.129,-30.736 0,-16.968 -14.842,-30.736 -33.129,-30.736 -18.287,0 -33.127,13.771 -33.127,30.736 0,16.965 14.84,30.736 33.127,30.736 z"
     id="path13" />
</svg>

<svg width="580" height="580" viewBox="0 0 580 580" fill="none" xmlns="http://www.w3.org/2000/svg">
<g clip-path="url(#clip0)">
<path d="M66.2751 1.76815C24.9401 1.76815 1.7041 23.1391 1.7041 66.8041V516.927C1.7041 557.771 22.5991 579.156 63.8961 579.156H515.92C557.227 579.156 578.149 558.841 578.149 516.927V66.8041C578.149 24.2031 557.227 1.76815 514.628 1.76815C514.624 1.76815 66.1331 1.62515 66.2751 1.76815Z" fill="#111111" stroke="#EEEEEE" stroke-width="3.408"/>
<path d="M510.43 216.548C511.847 209.783 502.983 200.668 502.983 200.668C500.44 187.581 487.435 178.496 487.435 178.496L483.937 177.832L477.786 145.168L471.404 156.736L470.078 145.168L455.032 172.817C430.585 170.216 411.476 175.021 397.24 181.876C396.327 181.682 395.368 181.504 394.359 181.345C385.771 179.93 373.818 179.93 358.107 181.345C349.91 166.416 343.031 154.853 337.275 145.925C331.42 137.045 329.129 132.702 323.81 128.409C318.199 123.873 311.71 119.579 304.927 119.481C298.195 119.335 293.318 120.945 283.707 128.067C273.899 135.239 257.311 151.828 247.115 162.024C236.868 171.977 228.526 180.125 223.208 187.784C217.841 195.347 215.401 200.518 215.5 207.446C215.589 213.697 217.236 220.186 222.215 226.483C208.275 224.007 170.366 219.829 148.275 242.106C140.206 233.724 102.978 198.537 74.4041 230.055C61.1771 246.588 73.2991 274.409 73.8511 286.81C74.4041 299.212 66.1321 328.128 42.9961 339.144C42.9961 339.144 118.064 334.189 105.803 276.891C104.455 268.217 97.8021 241.975 140.588 252.136C132.426 266.067 128.899 286.64 134.186 316.831C134.186 316.831 145.754 363.114 120.135 392.04L115.17 477.169C115.17 477.169 125.09 482.124 123.441 494.526C123.441 494.526 121.783 504.436 125.089 506.919H146.577L136.657 492.044C136.657 492.044 115.169 439.972 152.366 387.909C152.366 387.909 162.275 376.341 167.241 372.21L153.19 404.442C153.19 404.442 168.065 458.987 167.241 478.817C167.241 478.817 166.417 487.09 178.809 488.737C178.809 488.737 176.327 502.788 181.291 505.27H203.604C203.604 505.27 182.116 480.475 181.291 477.993C181.291 477.993 169.713 419.317 177.15 401.96C177.15 401.96 202.779 346.591 215.996 334.189C215.996 334.189 228.398 327.576 236.66 329.236C236.66 329.236 264.62 338.423 297.594 342.203C297.864 345.212 298.421 347.859 299.512 350.103C302.828 356.787 312 359.275 317.612 359.421C323.173 359.323 329.809 359.421 332.637 350.491C333.2 348.532 333.561 346.17 333.795 343.519C337.556 343.301 341.277 342.954 344.926 342.45C344.926 342.45 355.669 385.427 344.926 412.704C344.926 412.704 342.443 472.204 338.313 476.345C338.313 476.345 344.102 485.431 344.102 491.22C344.102 491.22 342.443 505.271 347.409 505.271H368.896C368.896 505.271 349.88 491.22 355.669 467.25C355.669 467.25 355.669 431.711 362.282 425.098C362.282 425.098 367.237 467.25 363.93 479.653C363.93 479.653 373.851 490.387 374.675 495.352L377.157 508.579H400.293L381.288 480.477C381.288 480.477 373.025 428.405 383.77 392.041C383.77 392.041 391.207 368.904 394.513 349.889C394.513 349.889 417.862 330.5 418.424 292.571L419.389 294.059C424.867 262.057 449.189 246.177 449.189 246.177C461.321 261.414 482.829 261.102 482.829 261.102C495.493 268.6 504.196 282.561 504.196 282.561C517.986 298.622 525.222 285.504 525.222 285.504C532.86 287.897 535.704 280.006 535.704 280.006C543.92 266.016 510.43 216.548 510.43 216.548V216.548ZM326.745 231.714C326.745 231.714 322.949 232.454 315.843 233.105L278.681 211.742L316.883 174.565C322.299 183.152 326.738 190.177 330.738 195.64C334.496 201.007 335.371 204.812 340.349 207.056C345.228 209.106 350.593 208.52 360.792 208.52C361.698 208.525 362.703 208.541 363.78 208.564L326.745 231.714Z" fill="white"/>
<path d="M356.498 132.894C374.785 132.894 389.627 119.124 389.627 102.158C389.627 85.1899 374.785 71.4219 356.498 71.4219C338.211 71.4219 323.371 85.1929 323.371 102.158C323.371 119.123 338.211 132.894 356.498 132.894Z" fill="white"/>
</g>
<defs>
<clipPath id="clip0">
<path d="M0 0H580V580H0V0Z" fill="white"/>
</clipPath>
</defs>
</svg>
